X: 1
T: Susan MacLeod
C: Donald MacLeod
R: strathspey
Z: 2011 John Chambers <jc:trillian.mit.edu>
S: Handwritten MS from Barbara McOwen
M: C
L: 1/16
K: A
"A"[| a2 |\
"A"e3f e3d dc3 c3B | "A"A3B cA3 "A7"ce3 e4 |\
"D"f3=g f3e fa3 a3f | "A"e3f e3c "Bm"f4 "D7"a3f |\
"A"e3f e3d dc3 c3B |
"A"A3B cA3 "A7"ce3 e3f |\
"D"a3e (3f2g2a2 "A"e3a da3 | "Bm"c3a "E7"Ba3 "A"A4 A2 "B"|] c2 |\
"A"e4 e3f ce3 e3c | "A"A3B cA3 "A7"ce3 cA3 |
"D"f4 f3e df3 f3g | "Bm"a3e (3f2g2a2 "Bm"e3a "E7"ca3 |\
"A"(3f2e2c2 e3f ce3 e3c | "A"A3B cA3 "A7"ce3 cA3 |\
"D"a3e (3f2g2a2 "A"e3a da3 | "Bm"c3a "E7"Ba3 "A"A4 A2 |]
f2 "C"|\
"A"e3A AAA2 AAA2 cA3 | "A"cA3 AAA2 ce3 e3a |\
"Bm"f3B BBB2 BBB2 d3c | "Bm"BBB2 d3e "Bm"f4 "E7"fa3 |\
"A"e3A AAA2 AAA2 cA3 |
"A"cA3 AAA2 ce3 e3f |\
"D"a3e (3f2g2a2 "A"e3a da3 | "Bm"c3a "E7"Ba3 "A"A4 A2 "D"|] e2 |\
"A"fa3 a3c ce3 e3c | "A"A3B cA3 "A7"ce3 e3f |
"D"fa3 a3d df3 f3g | "Bm"a3e (3f2g2a2 "Bm"ca3 "E7"f3e |\
"A"fa3 a3c ce3 e3c | "A"A3B cA3 "A7"ce3 e3f |\
"D"a3e (3f2g2a2 "A"e3a da3 | "Bm"c3a "E7"Ba3 "A"A4 A2 |]
